X: 162
T: Maid On The Green
R: jig
M: 6/8
L: 1/8
K:Gmaj
d|"G"gfg "C"e2d|"Em"Bee "D"dBA|"G"BGG dGG|BAG "D"ABd|
"G"gfg "C"e2d|"Em"Bee "D"dBA|"G"BGG "D"dBA|"G"BGF GB:|
|: d|"G"gfg "D"afd|"G"gfg "D"a2f|"G"gfg "C"eag|"D"fdd d2a|
"G"bgb "D"afa|"G"gag "C"e2d|"Em"Bee "D"dBA|"G"BGF G2:|


